packages/synapse-interface/assets/icons/dai.svg

<svg fill="none" height="48" viewBox="0 0 48 48" width="48" xmlns="http://www.w3.org/2000/svg"><rect fill="#f9a606" height="48" rx="24" width="48"/><path clip-rule="evenodd" d="m15.1156 12.9175h8.9659c5.4536 0 9.5876 2.9313 11.1256 7.1968h2.7929v2.5781h-2.2048c.0432.4073.0652.8224.0652 1.2441v.0633c0 .4748-.0279.9414-.0824 1.3985h2.222v2.5781h-2.8461c-1.5784 4.2062-5.6804 7.1095-11.0724 7.1095h-8.9659v-7.1095h-3.1156v-2.5781h3.1156v-2.7059h-3.1156v-2.5781h3.1156zm2.5065 15.0589v4.7968h6.4594c3.9861 0 6.9475-1.9211 8.326-4.7968zm15.5533-2.5781h-15.5533v-2.7059h15.5573c.0577.4258.0871.8623.0871 1.3074v.0634c0 .4553-.0308.9011-.0911 1.3351zm-9.0939-10.1719c4.0044 0 6.9747 1.9719 8.345 4.8879h-14.8044v-4.8879z" fill="#fff" fill-rule="evenodd"/></svg>

<svg width="48" height="48" viewBox="0 0 48 48" fill="none" xmlns="http://www.w3.org/2000/svg">
<rect width="48" height="48" rx="24" fill="#F9A606"/>
<path fill-rule="evenodd" clip-rule="evenodd" d="M15.1156 12.9175H24.0815C29.5351 12.9175 33.6691 15.8488 35.2071 20.1143H38V22.6924H35.7952C35.8384 23.0997 35.8604 23.5148 35.8604 23.9365V23.9998C35.8604 24.4746 35.8325 24.9412 35.778 25.3983H38V27.9764H35.1539C33.5755 32.1826 29.4735 35.0859 24.0815 35.0859H15.1156V27.9764H12V25.3983H15.1156V22.6924H12V20.1143H15.1156V12.9175ZM17.6221 27.9764V32.7732H24.0815C28.0676 32.7732 31.029 30.8521 32.4075 27.9764H17.6221ZM33.1754 25.3983H17.6221V22.6924H33.1794C33.2371 23.1182 33.2665 23.5547 33.2665 23.9998V24.0632C33.2665 24.5185 33.2357 24.9643 33.1754 25.3983ZM24.0815 15.2264C28.0859 15.2264 31.0562 17.1983 32.4265 20.1143H17.6221V15.2264H24.0815Z" fill="white"/>
</svg>
